icons/database-16.svg

<svg width="16" height="16" viewBox="0 0 16 16" fill="none" xmlns="http://www.w3.org/2000/svg">
<path fill-rule="evenodd" clip-rule="evenodd" d="M2.5 3.5C2.5 3.36696 2.55813 3.18206 2.78185 2.94934C3.00913 2.7129 3.37394 2.46577 3.88264 2.24194C4.89793 1.79522 6.35303 1.5 8 1.5C9.64697 1.5 11.1021 1.79522 12.1174 2.24194C12.6261 2.46577 12.9909 2.7129 13.2182 2.94934C13.4419 3.18206 13.5 3.36696 13.5 3.5C13.5 3.63304 13.4419 3.81794 13.2182 4.05066C12.9909 4.2871 12.6261 4.53423 12.1174 4.75806C11.1021 5.20478 9.64697 5.5 8 5.5C6.35303 5.5 4.89793 5.20478 3.88264 4.75806C3.37394 4.53423 3.00913 4.2871 2.78185 4.05066C2.55813 3.81794 2.5 3.63304 2.5 3.5ZM1 3.5C1 2.87365 1.29164 2.3351 1.70046 1.90982C2.10572 1.48824 2.6562 1.1428 3.27853 0.86897C4.52529 0.320393 6.19519 0 8 0C9.80481 0 11.4747 0.320393 12.7215 0.86897C13.3438 1.1428 13.8943 1.48824 14.2995 1.90982C14.7084 2.3351 15 2.87365 15 3.5V12.5C15 13.1264 14.7084 13.6649 14.2995 14.0902C13.8943 14.5118 13.3438 14.8572 12.7215 15.131C11.4747 15.6796 9.80481 16 8 16C6.19519 16 4.52529 15.6796 3.27853 15.131C2.6562 14.8572 2.10572 14.5118 1.70046 14.0902C1.29164 13.6649 1 13.1264 1 12.5V3.5ZM2.5 8V5.72448C2.74115 5.87432 3.00279 6.0097 3.27853 6.13103C4.52529 6.67961 6.19519 7 8 7C9.80481 7 11.4747 6.67961 12.7215 6.13103C12.9972 6.0097 13.2589 5.87432 13.5 5.72448V8C13.5 8.13304 13.4419 8.31794 13.2182 8.55066C12.9909 8.7871 12.6261 9.03423 12.1174 9.25806C11.1021 9.70478 9.64697 10 8 10C6.35303 10 4.89793 9.70478 3.88264 9.25806C3.37394 9.03423 3.00913 8.7871 2.78185 8.55066C2.55813 8.31794 2.5 8.13304 2.5 8ZM2.5 10.2245V12.5C2.5 12.633 2.55813 12.8179 2.78185 13.0507C3.00913 13.2871 3.37394 13.5342 3.88264 13.7581C4.89793 14.2048 6.35303 14.5 8 14.5C9.64697 14.5 11.1021 14.2048 12.1174 13.7581C12.6261 13.5342 12.9909 13.2871 13.2182 13.0507C13.4419 12.8179 13.5 12.633 13.5 12.5V10.2245C13.2589 10.3743 12.9972 10.5097 12.7215 10.631C11.4747 11.1796 9.80481 11.5 8 11.5C6.19519 11.5 4.52529 11.1796 3.27853 10.631C3.00279 10.5097 2.74115 10.3743 2.5 10.2245Z" fill="#24292E"/>
</svg>

<svg xmlns="http://www.w3.org/2000/svg" width="16" height="16" viewBox="0 0 16 16"><path fill-rule="evenodd" d="M2.5 3.5c0-.133.058-.318.282-.55.227-.237.592-.484 1.1-.708C4.899 1.795 6.354 1.5 8 1.5c1.647 0 3.102.295 4.117.742.51.224.874.47 1.101.707.224.233.282.418.282.551 0 .133-.058.318-.282.55-.227.237-.592.484-1.1.708C11.101 5.205 9.646 5.5 8 5.5c-1.647 0-3.102-.295-4.117-.742-.51-.224-.874-.47-1.101-.707-.224-.233-.282-.418-.282-.551zM1 3.5c0-.626.292-1.165.7-1.59.406-.422.956-.767 1.579-1.041C4.525.32 6.195 0 8 0c1.805 0 3.475.32 4.722.869.622.274 1.172.62 1.578 1.04.408.426.7.965.7 1.591v9c0 .626-.292 1.165-.7 1.59-.406.422-.956.767-1.579 1.041C11.476 15.68 9.806 16 8 16c-1.805 0-3.475-.32-4.721-.869-.623-.274-1.173-.62-1.579-1.04-.408-.426-.7-.965-.7-1.591v-9zM2.5 8V5.724c.241.15.503.286.779.407C4.525 6.68 6.195 7 8 7c1.805 0 3.475-.32 4.722-.869.275-.121.537-.257.778-.407V8c0 .133-.058.318-.282.55-.227.237-.592.484-1.1.708C11.101 9.705 9.646 10 8 10c-1.647 0-3.102-.295-4.117-.742-.51-.224-.874-.47-1.101-.707C2.558 8.318 2.5 8.133 2.5 8zm0 2.225V12.5c0 .133.058.318.282.55.227.237.592.484 1.1.708 1.016.447 2.471.742 4.118.742 1.647 0 3.102-.295 4.117-.742.51-.224.874-.47 1.101-.707.224-.233.282-.418.282-.551v-2.275c-.241.15-.503.285-.778.406-1.247.549-2.917.869-4.722.869-1.805 0-3.475-.32-4.721-.869a6.236 6.236 0 01-.779-.406z"/></svg>
